X: 1
T: String Quartet in F Major opus 17 no 2 mvt 4
C: Franz Joseph Haydn
%%abc-version 2.0
%%abcx-abcm2ps-target-version 5.9.1 (29 Sep 2008)
%%abc-creator hum2abc beta
%%abcx-conversion-date 2021/02/14 14:38:09
%%abc-copyright Copyright (c) 1994, 2000 Center for Computer Assisted Research in the Humanities
%%abc-edited-by Frances Bennion
%%abcx-initial-encoding-date 1997/04/15
%%gracespace 0 6 6
%%humdrum-veritas 2895477849
%%humdrum-veritas-data 2390809893
%%linebreak <none>
%%barnumbers 0
L: 1/16
M: 2/4
N: Derived from op17n2-04.krn
Q: "Finale: Allegro di molto"
%%staves [1 2 3 4]
V: 1
V: 2
V: 3 clef=alto
V: 4 clef=bass
K: F
[V:1]z6 C2 [I:setbarnb1]|
[V:2]z6 z2 |
[V:3]z6 z2 |
[V:4]z6 z2 |
[V:1][A,8F8] |
[V:2]z8 |
[V:3]z8 |
[V:4]z8 |
[V:1][G,2E2]z4 C2 |
[V:2]z2[G,2E2] [E2G,2]z2 |
[V:3]z2B,2 B,2z2 |
[V:4]z2C,2 C,2z2 |
[V:1][G8B,8] |
[V:2]z8 |
[V:3]z8 |
[V:4]z8 |
[V:1][A,2F2]z4 c2- |
[V:2]z2[F2A,2] [A,2F2]A2- |
[V:3]z2A,2 A,2z2 |
[V:4]z2F,2 F,2z2 |
[V:1]c2A4 f2- |
[V:2]A2F4 d2- |
[V:3]F,4 F4 |
[V:4]z8 |
[V:1]f2d4 Dd |
[V:2]d2B4 B2 |
[V:3]B,4 z4 |
[V:4]B,,4 B,4 |
[V:1]c2BA G2AB |
[V:2]A2GF E2FG |
[V:3]z4 C4 |
[V:4]C4 C,4 |
[V:1]B4 A2c2- |
[V:2]G4 F2A2- |
[V:3]C8 |
[V:4]F,4 F,,4 |
[V:1]c2A4 f2- |
[V:2]A2F4 d2- |
[V:3]F,4 F4 |
[V:4]z8 |
[V:1]f2d4 Dd |
[V:2]d2B4 B2 |
[V:3]B,4 z4 |
[V:4]B,,4 B,4 |
[V:1]c2BA G2FE |
[V:2]A2GF B,2A,G, |
[V:3]z4 C4 |
[V:4]C4 C,4 |
[V:1]F4 zaga |
[V:2]A,4 z4 |
[V:3]C4 z4 |
[V:4]F,4 z4 |
[V:1]fcBc AFEF |
[V:2]A4 z4 |
[V:3]C4 z4 |
[V:4]F,4 z4 |
[V:1]A,4 zgfg |
[V:2]A4 z4 |
[V:3]C4 z4 |
[V:4]F,4 z4 |
[V:1]ec=Bc GEDE |
[V:2]G4 z4 |
[V:3]C4 z4 |
[V:4]E,4 z4 |
[V:1]G,4 zaga |
[V:2]G4 z4 |
[V:3]C4 z4 |
[V:4]E,4 z4 |
[V:1]fgef decd |
[V:2]A2G2 F2E2 |
[V:3]z8 |
[V:4]D,2E,2 F,2^F,2 |
[V:1]=BcAB GAFG |
[V:2]D2C2 =B,2CD |
[V:3]D6 G,2 |
[V:4]G,6 A,=B, |
[V:1]EG,GG, FG,=BG, |
[V:2]C2E2 D2F2 |
[V:3]G,4 z2D2 |
[V:4]C4 z2G,2 |
[V:1]cG,GG, FG,DG, |
[V:2]E4 z2F2 |
[V:3]C4 z2G,2 |
[V:4]C2E2 D2=B,2 |
[V:1]EG,GG, FG,=BG, |
[V:2]C2E2 D2F2 |
[V:3]G,4 z2D2 |
[V:4]C4 z2G,2 |
[V:1]cG,GG, FG,DG, |
[V:2]E4 z2F2 |
[V:3]C4 z2G,2 |
[V:4]C2E2 D2=B,2 |
[V:1]EG,GG, AG,=BG, |
[V:2]E2E2 F2G2 |
[V:3]G,4 z4 |
[V:4]C4 z4 |
[V:1]cG,=BG, cG,dG, |
[V:2]A2G2 A2=B2 |
[V:3]z8 |
[V:4]z8 |
[V:1]eG,dG, eG,fG, |
[V:2]c2=B2 c2d2 |
[V:3]z8 |
[V:4]z8 |
[V:1]g4 z2g2 |
[V:2]e4 z4 |
[V:3]z8 |
[V:4]z8 |
[V:1]c'8 |
[V:2]z2^F2 F2F2 |
[V:3]z2D2 D2D2 |
[V:4]z2A,2 A,2A,2 |
[V:1]=b8 |
[V:2]z2G2 G2G2 |
[V:3]z2D2 D2D2 |
[V:4]z2G,2 G,2G,2 |
[V:1]f'8 |
[V:2]z2G2 G2G2 |
[V:3]z2D2 D2D2 |
[V:4]z2=B,2 B,2B,2 |
[V:1]e'8 |
[V:2]z2G2 G2G2 |
[V:3]z2E2 E2E2 |
[V:4]z2C2 C2C2 |
[V:1]a'8 |
[V:2]z2c2 c2c2 |
[V:3]z2D2 D2D2 |
[V:4]z2F,2 F,2F,2 |
[V:1]A4 d4 |
[V:2]c2c2 A2A2 |
[V:3]D2D2 D2D2 |
[V:4]F,2F,2 F,2F,2 |
[V:1]c8 |
[V:2]FGEG FGEG |
[V:3]D2^C2 D2C2 |
[V:4]G,8- |
[V:1]=B2c2 B2c2 |
[V:2]F8- |
[V:3]D8- |
[V:4]G,2_A,2 G,2A,2 |
[V:1]=B8- |
[V:2]FGEG FGEG |
[V:3]D2^C2 D2C2 |
[V:4]G,8- |
[V:1]B2c2 =B2c2 |
[V:2]F8- |
[V:3]D8- |
[V:4]G,2_A,2 G,2A,2 |
[V:1]=B8- |
[V:2]FGEG FGEG |
[V:3]D2^C2 D2C2 |
[V:4]G,8- |
[V:1]B2c2 d2e2 |
[V:2]F2G2 F2E2 |
[V:3]D2E2 D2C2 |
[V:4]G,8- |
[V:1]f4 z4 |
[V:2]D4 z4 |
[V:3]=B,4 z4 |
[V:4]G,4 z2G,,2 |
[V:1]z4 zede |
[V:2]z6 G,2 |
[V:3]zEDE C4 |
[V:4]C,4 C,,4 |
[V:1]cd=Bc ABGA |
[V:2]C8- |
[V:3]E8 |
[V:4]z4 C,4 |
[V:1]F4 zfef |
[V:2]C4 =B,4 |
[V:3]F8- |
[V:4]D,4 D,,4 |
[V:1]decd =BcAB |
[V:2]D8- |
[V:3]F8 |
[V:4]z4 D,4 |
[V:1]G4 zgfg |
[V:2]D4 C4 |
[V:3]G8- |
[V:4]E,4 E,,4 |
[V:1]efde cd=Bc |
[V:2]E8- |
[V:3]G8 |
[V:4]z4 E,4 |
[V:1]A4 zaga |
[V:2]E4 D4 |
[V:3]A8- |
[V:4]F,4 F,,4 |
[V:1]fgef decd |
[V:2]F8- |
[V:3]A8 |
[V:4]z4 F,4 |
[V:1]=B4 zdcd |
[V:2]F4 =B,4 |
[V:3]D8 |
[V:4]G,4 G,,4 |
[V:1]=BcAB GAFG |
[V:2]D8 |
[V:3]F8 |
[V:4]z4 G,4 |
[V:1]E4 G4 |
[V:2]G,4 z4 |
[V:3]E4 zEDE |
[V:4]C4 C,C=B,C |
[V:1]c8- |
[V:2]E8 |
[V:3]CD=B,C A,B,G,A, |
[V:4]A,=B,G,A, F,G,E,F, |
[V:1]c4 =B4 |
[V:2]F8 |
[V:3]F,4 zFEF |
[V:4]D,4 zDCD |
[V:1]d8- |
[V:2]F8 |
[V:3]DECD =B,CA,B, |
[V:4]=B,CA,B, G,A,F,G, |
[V:1]d4 c4 |
[V:2]G8 |
[V:3]G,4 zGFG |
[V:4]E,4 zEDE |
[V:1]e8- |
[V:2]G8 |
[V:3]EFDE CD=B,C |
[V:4]CD=B,C A,B,G,A, |
[V:1]e4 d4 |
[V:2]A8 |
[V:3]A,4 zAGA |
[V:4]F,4 zFEF |
[V:1]f8- |
[V:2]A8 |
[V:3]FGEF DECD |
[V:4]DECD =B,CA,B, |
[V:1]f4 e4 |
[V:2]d4 G4 |
[V:3]=B,2CD E2C2 |
[V:4]G,2A,=B, C2C,2 |
[V:1][c4a4] [=b4d4] |
[V:2]c4 d4 |
[V:3]A,4 G,4 |
[V:4]F,2F,,2 F,2F,,2 |
[V:1][c'4e4] z4 |
[V:2]e4 z4 |
[V:3]G,4 z4 |
[V:4]E,2E,,2 z4 |
[V:1]^F8 |
[V:2]^F8 |
[V:3]^F8 |
[V:4]^F,8 |
[V:1]GA^FA GA=FG |
[V:2]G2^F2 G2=F2 |
[V:3]G2^F2 G2=F2 |
[V:4]G,2^F,2 G,2=F,2 |
[V:1]EFDE CG^FA |
[V:2]E2D2 C2^F2 |
[V:3]E2D2 C2^F2 |
[V:4]E,2D,2 C,2^F,2 |
[V:1]GA^FA GA=FG |
[V:2]G2^F2 G2=F2 |
[V:3]G2^F2 G2=F2 |
[V:4]G,2^F,2 G,2=F,2 |
[V:1]EFDE CG^FA |
[V:2]E2D2 C2^F2 |
[V:3]E2D2 C2^F2 |
[V:4]E,2D,2 C,2^F,2 |
[V:1]GA^FA G2^G=B |
[V:2]G2^F2 G2^G2 |
[V:3]G2^F2 G2^G2 |
[V:4]G,2^F,2 G,2^G,2 |
[V:1]A=B^GB A2Bd |
[V:2]A2^G2 A2=B2 |
[V:3]A2^G2 A2=B2 |
[V:4]A,2^G,2 A,2=B,2 |
[V:1]cd=Bc ABGA |
[V:2]c2=B2 A2G2 |
[V:3]c2=B2 A2G2 |
[V:4]C2=B,2 A,2G,2 |
[V:1]F4 a4 |
[V:2]F4 z4 |
[V:3]F4 z4 |
[V:4]F,4 z4 |
[V:1]^F4 c'4 |
[V:2]^F4 z4 |
[V:3]^F4 z4 |
[V:4]^F,4 z4 |
[V:1]G8 |
[V:2]G,2G2 F2E2 |
[V:3]G,2E2 D2C2 |
[V:4]G,4 z4 |
[V:1]d8 |
[V:2]z2F2 E2D2 |
[V:3]z2D2 C2=B,2 |
[V:4]G,4 z4 |
[V:1]c6 G2 |
[V:2]EFDE CGFE |
[V:3]C4 E2G2 |
[V:4]C,2C,2 C,2C,2 |
[V:1]A4 =B4 |
[V:2]FGEF DFED |
[V:3]F8 |
[V:4]C,2C,2 C,2C,2 |
[V:1]c6 G,2 |
[V:2]EFDE CGFE |
[V:3]E4 E,2G,2 |
[V:4]C,2C,2 C,2C,2 |
[V:1]A,4 =B,4 |
[V:2]FGEF DFED |
[V:3]F,8 |
[V:4]C,2C,2 C,2C,2 |
[V:1]CEDF EGFA |
[V:2]CEDF EGFA |
[V:3]E,4 EGFA |
[V:4]C,E,D,F, E,G,F,A, |
[V:1]GABc BAGF |
[V:2]GABc BAGF |
[V:3]GABc BAGF |
[V:4]G,A,B,C B,A,G,F, |
[V:1]E4 z2A,2 |
[V:2]E4 z4 |
[V:3]E4 z4 |
[V:4]E,4 z4 |
[V:1]G8 |
[V:2]^C8 |
[V:3]E8 |
[V:4]A,,2A,,2 A,,2A,,2 |
[V:1]F4 z2A,2 |
[V:2]D8 |
[V:3]F8 |
[V:4]A,,2A,,2 A,,2A,,2 |
[V:1]^G8 |
[V:2]=B,8 |
[V:3]D8 |
[V:4]A,,2A,,2 A,,2A,,2 |
[V:1]A4 zaga |
[V:2]^C4 z4 |
[V:3]E4 z4 |
[V:4]A,,2A,2 A,,2z2 |
[V:1]fgef decd |
[V:2]zAGA FGEF |
[V:3]z8 |
[V:4]D,2E,2 F,2z2 |
[V:1]BcAB Ggfg |
[V:2]DECD B,BAB |
[V:3]G,2A,2 B,2z2 |
[V:4]z8 |
[V:1]efde cdBc |
[V:2]GAFG EFDE |
[V:3]z8 |
[V:4]C,2D,2 E,2z2 |
[V:1]ABGA Ffef |
[V:2]CDB,C A,AGA |
[V:3]F,2G,2 A,2z2 |
[V:4]z8 |
[V:1]decd BcAB |
[V:2]FGEF DECD |
[V:3]z8 |
[V:4]B,,2C,2 D,2z2 |
[V:1]GAFG Eede |
[V:2]B,CA,B, G,GFG |
[V:3]E,2F,2 G,2z2 |
[V:4]z8 |
[V:1]^cd=Bc Agfe |
[V:2]EFDE ^C2A,2 |
[V:3]z8 |
[V:4]A,,2=B,,2 ^C,2z2 |
[V:1]f2^c2 d2=c2 |
[V:2]DFEG F2z2 |
[V:3]z6 D,^F, |
[V:4]z8 |
[V:1]B2^F2 G2f2 |
[V:2]z6 G,=B, |
[V:3]G,B,A,C B,2z2 |
[V:4]z8 |
[V:1]e2=B2 c2_B2 |
[V:2]CEDF E2z2 |
[V:3]z6 C,E, |
[V:4]z8 |
[V:1]A2E2 F2_e2 |
[V:2]z6 c2 |
[V:3]F,A,G,B, A,2z2 |
[V:4]z6 F,A, |
[V:1]d2A2 BcAB |
[V:2]B2F2 F2F2 |
[V:3]z8 |
[V:4]B,DC_E D2C2 |
[V:1]GBdc BAGF |
[V:2]F8 |
[V:3]D8 |
[V:4]B,6 =B,2 |
[V:1]E4 z2C2 |
[V:2]EFGF EDCB, |
[V:3]C4 z2E,2 |
[V:4]C4 z4 |
[V:1][F8A,8] |
[V:2]A,4 z4 |
[V:3]F,4 z4 |
[V:4]z8 |
[V:1][E4G,4] z2C2 |
[V:2]z2[G,2E2] [E2G,2]z2 |
[V:3]z2B,2 B,2z2 |
[V:4]z2C,2 C,2z2 |
[V:1][G8B,8] |
[V:2]z8 |
[V:3]z8 |
[V:4]z8 |
[V:1][A,2F2]z4 c2- |
[V:2]z2[F2A,2] [F2A,2]A2- |
[V:3]z2A,2 A,2z2 |
[V:4]z2F,2 F,2z2 |
[V:1]c2A4 f2- |
[V:2]A2F4 d2- |
[V:3]F,4 F4 |
[V:4]z8 |
[V:1]f2d4 Dd |
[V:2]d2B4 B2 |
[V:3]B,4 z4 |
[V:4]B,,4 B,4 |
[V:1]c2BA G2AB |
[V:2]A2GF E2FG |
[V:3]z4 C4 |
[V:4]C4 C,4 |
[V:1]B4 A2c2- |
[V:2]G4 F2A2- |
[V:3]C4 z4 |
[V:4]F,4 F,,4 |
[V:1]c2A4 f2- |
[V:2]A2F4 d2- |
[V:3]A,4 F,4 |
[V:4]F,4 F,4 |
[V:1]f2d4 g2- |
[V:2]d2B4 B2- |
[V:3]D4 B,4 |
[V:4]B,4 G,4 |
[V:1]g2e4 a2- |
[V:2]B2G4 c2- |
[V:3]E4 C4 |
[V:4]C4 A,4 |
[V:1]a2f4 b2- |
[V:2]c2A4 d2 |
[V:3]F4 D4 |
[V:4]D4 B,4 |
[V:1]b2b4 a2- |
[V:2]g2g4 f2- |
[V:3]C8 |
[V:4]E,4 F,4 |
[V:1]a2g4 g2- |
[V:2]f2f4 f2 |
[V:3]D8 |
[V:4]B,,4 =B,,4 |
[V:1]gcc'c bcac |
[V:2]e2a2 g2f2 |
[V:3]C8- |
[V:4]C,4 z4 |
[V:1]gcac gcfc |
[V:2]e2f2 e2d2 |
[V:3]C8- |
[V:4]z8 |
[V:1]ecc'c bcac |
[V:2]c2a2 g2f2 |
[V:3]C8- |
[V:4]C,4 z4 |
[V:1]gcac gcfc |
[V:2]e2f2 e2d2 |
[V:3]C8- |
[V:4]z8 |
[V:1]ecfc gcac |
[V:2]c2d2 e2f2 |
[V:3]C8- |
[V:4]C,4 z4 |
[V:1]b4 z2c2 |
[V:2]g4 z4 |
[V:3]C4 z4 |
[V:4]z8 |
[V:1]f8 |
[V:2]z2c2 c2c2 |
[V:3]z2C2 C2C2 |
[V:4]z2A,2 A,2A,2 |
[V:1]e8 |
[V:2]z2B2 B2B2 |
[V:3]z2C2 C2C2 |
[V:4]z2G,2 G,2G,2 |
[V:1]b8 |
[V:2]z2c2 c2c2 |
[V:3]z2G2 G2G2 |
[V:4]z2E,2 E,2E,2 |
[V:1]a8 |
[V:2]z2c2 c2c2 |
[V:3]z2A2 A2A2 |
[V:4]z2F,2 F,2F,2 |
[V:1]d'8 |
[V:2]z2f2 f2f2 |
[V:3]z2G2 G2G2 |
[V:4]z2B,2 B,2B,2 |
[V:1]d4 g4 |
[V:2]f2f2 d2d2 |
[V:3]G2G2 G2G2 |
[V:4]B,2B,2 B,2B,2 |
[V:1]f8 |
[V:2]BcAc BcAc |
[V:3]G2^F2 G2F2 |
[V:4]C8- |
[V:1]e2f2 e2f2 |
[V:2]B8- |
[V:3]G8- |
[V:4]C2_D2 C2D2 |
[V:1]e8- |
[V:2]BcAc BcAc |
[V:3]G2^F2 G2F2 |
[V:4]C8- |
[V:1]e2f2 e2f2 |
[V:2]B8- |
[V:3]G8- |
[V:4]C2_D2 C2D2 |
[V:1]e8- |
[V:2]BcAc BcAc |
[V:3]G2^F2 G2F2 |
[V:4]C8- |
[V:1]e2f2 g2a2 |
[V:2]B2c2 B2A2 |
[V:3]G2A2 G2F2 |
[V:4]C8- |
[V:1]b4 z4 |
[V:2]G4 z4 |
[V:3]E4 z4 |
[V:4]C4 z2C,2 |
[V:1]z4 zaga |
[V:2]z6 C2 |
[V:3]zAGA F4 |
[V:4]F,4 F,,4 |
[V:1]fgef decd |
[V:2]F8- |
[V:3]A8 |
[V:4]z4 F,4 |
[V:1]B4 zbab |
[V:2]F4 E4 |
[V:3]B8- |
[V:4]G,4 G,,4 |
[V:1]gafg efde |
[V:2]G8- |
[V:3]B8 |
[V:4]z4 G,4 |
[V:1]c4 zc'bc' |
[V:2]G4 F4 |
[V:3]c8- |
[V:4]A,4 A,,4 |
[V:1]abga fgef |
[V:2]A8- |
[V:3]c8 |
[V:4]z4 A,4 |
[V:1]d4 zd'c'd' |
[V:2]A4 G4 |
[V:3]d8- |
[V:4]B,4 B,,4 |
[V:1]bc'ab gafg |
[V:2]B8- |
[V:3]d8 |
[V:4]z4 B,4 |
[V:1]e4 zgfg |
[V:2]B4 E4 |
[V:3]G8 |
[V:4]C4 C,4 |
[V:1]efde cdBc |
[V:2]G8 |
[V:3]B8 |
[V:4]z4 C,4 |
[V:1]A4 c4 |
[V:2]C4 zAGA |
[V:3]A4 z4 |
[V:4]F,4 F,,F,E,F, |
[V:1]f8- |
[V:2]FGEF DECD |
[V:3]A,8 |
[V:4]D,E,C,D, B,,C,A,,B,, |
[V:1]f4 e4 |
[V:2]B,4 zBAB |
[V:3]B,CA,B, G,2A,2 |
[V:4]G,,4 zG,F,G, |
[V:1]g8- |
[V:2]GAFG EFDE |
[V:3]B,8 |
[V:4]E,F,D,E, C,D,B,,C, |
[V:1]g4 f4 |
[V:2]C4 zcBc |
[V:3]CDB,C A,2B,2 |
[V:4]A,,4 zA,G,A, |
[V:1]a8- |
[V:2]ABGA FGEF |
[V:3]C8 |
[V:4]F,G,E,F, D,E,C,D, |
[V:1]a4 g4 |
[V:2]D4 zdcd |
[V:3]DECD B,2C2 |
[V:4]B,,4 zB,A,B, |
[V:1]b8- |
[V:2]BcAB GAFG |
[V:3]D8 |
[V:4]G,A,F,G, E,F,D,E, |
[V:1]b4 a4 |
[V:2]E2FG F4- |
[V:3]G4 C4 |
[V:4]C,2D,E, F,2G,A, |
[V:1]g8 |
[V:2]F4 E4 |
[V:3]D4 B,4 |
[V:4]B,2G,2 C2C,2 |
[V:1]f4 z4 |
[V:2]F4 z4 |
[V:3]A,4 z4 |
[V:4]D,4 z4 |
[V:1]=B8 |
[V:2]=B8 |
[V:3]=B,8 |
[V:4]=B,8 |
[V:1]cd=Bd cd_Bc |
[V:2]c2=B2 c2_B2 |
[V:3]C2=B,2 C2_B,2 |
[V:4]C2=B,2 C2_B,2 |
[V:1]ABGA Fc=Bd |
[V:2]A2G2 F2=B2 |
[V:3]A,2G,2 F,2=B,2 |
[V:4]A,2G,2 F,2=B,2 |
[V:1]cd=Bd cd_Bc |
[V:2]c2=B2 c2_B2 |
[V:3]C2=B,2 C2_B,2 |
[V:4]C2=B,2 C2_B,2 |
[V:1]ABGA Fc=Bd |
[V:2]A2G2 F2=B2 |
[V:3]A,2G,2 F,2=B,2 |
[V:4]A,2G,2 F,2=B,2 |
[V:1]cd=Bd c2^ce |
[V:2]c2=B2 c2^c2 |
[V:3]C2=B,2 C2^C2 |
[V:4]C2=B,2 C2^C2 |
[V:1]de^ce d2eg |
[V:2]d2^c2 d2e2 |
[V:3]D2^C2 D2E2 |
[V:4]D2^C2 D2E2 |
[V:1]fgef decd |
[V:2]f2e2 d2c2 |
[V:3]F2E2 D2C2 |
[V:4]F2E2 D2C2 |
[V:1]B4 d'4 |
[V:2]B4 z4 |
[V:3]B,4 z4 |
[V:4]B,4 z4 |
[V:1]=B4 f'4 |
[V:2]=B4 z4 |
[V:3]=B,4 z4 |
[V:4]=B,4 z4 |
[V:1]C8 |
[V:2]C2c2 B2A2 |
[V:3]C2A2 G2F2 |
[V:4]C4 z4 |
[V:1]g8 |
[V:2]z2B2 A2G2 |
[V:3]z2G2 F2E2 |
[V:4]C,4 z4 |
[V:1]f6 c2 |
[V:2]ABGA FcBA |
[V:3]F4 A2c2 |
[V:4]F,2F,2 F,2F,2 |
[V:1]d4 e4 |
[V:2]BcAB GBAG |
[V:3]B8 |
[V:4]F,2F,2 F,2F,2 |
[V:1]f6 C2 |
[V:2]ABGA FcBA |
[V:3]A4 A,2C2 |
[V:4]F,2F,2 F,2F,2 |
[V:1]D4 E4 |
[V:2]BcAB GBAG |
[V:3]B,8 |
[V:4]F,2F,2 F,2F,2 |
[V:1]FAGB AcBd |
[V:2]FAGB AcBd |
[V:3]A,4 A,CB,D |
[V:4]F,A,G,B, A,CB,D |
[V:1]cd_ef edcB |
[V:2]cd_ef edcB |
[V:3]CD_EF EDCB, |
[V:4]CD_EF EDCB, |
[V:1]A4 z4 |
[V:2]A4 z4 |
[V:3]A,4 z4 |
[V:4]A,4 z4 |
[V:1]F4 [f4A4] |
[V:2]F4 [A4F4] |
[V:3]A,4 [A4F4C4] |
[V:4]F,4 F,,4 |
[V:1][f4A4] z4 |]
[V:2][F4A4] z4 |]
[V:3][A4F4C4] z4 |]
[V:4]F,,4 z4 |]

